apps/16/preferences-desktop-theme.svg

<?xml version="1.0" encoding="UTF-8" standalone="no"?>
<svg
   xmlns:dc="http://purl.org/dc/elements/1.1/"
   xmlns:cc="http://creativecommons.org/ns#"
   xmlns:rdf="http://www.w3.org/1999/02/22-rdf-syntax-ns#"
   xmlns:svg="http://www.w3.org/2000/svg"
   xmlns="http://www.w3.org/2000/svg"
   xmlns:sodipodi="http://sodipodi.sourceforge.net/DTD/sodipodi-0.dtd"
   xmlns:inkscape="http://www.inkscape.org/namespaces/inkscape"
   height="16"
   width="16"
   version="1.1"
   id="svg10"
   sodipodi:docname="preferences-desktop-theme.svg"
   inkscape:version="0.92.2pre0 (973e216, 2017-07-25)">
  <metadata
     id="metadata16">
    <rdf:RDF>
      <cc:Work
         rdf:about="">
        <dc:format>image/svg+xml</dc:format>
        <dc:type
           rdf:resource="http://purl.org/dc/dcmitype/StillImage" />
      </cc:Work>
    </rdf:RDF>
  </metadata>
  <defs
     id="defs14" />
  <sodipodi:namedview
     pagecolor="#ffffff"
     bordercolor="#808080"
     borderopacity="1"
     objecttolerance="10"
     gridtolerance="10"
     guidetolerance="10"
     inkscape:pageopacity="0"
     inkscape:pageshadow="2"
     inkscape:window-width="1920"
     inkscape:window-height="975"
     id="namedview12"
     showgrid="false"
     inkscape:zoom="14.75"
     inkscape:cx="8"
     inkscape:cy="8"
     inkscape:window-x="0"
     inkscape:window-y="24"
     inkscape:window-maximized="1"
     inkscape:current-layer="svg10" />
  <g
     color="#000"
     transform="translate(-592 -160)"
     id="g8"
     style="fill:#808080;fill-opacity:1">
    <path
       d="M595.994 161c-1.258.015-2.179-.03-2.932.385a1.88 1.88 0 0 0-.837.998c-.165.438-.225.96-.225 1.617v6c0 .658.06 1.179.225 1.617.164.439.461.79.837.998.753.416 1.674.37 2.932.385H604.006c1.258-.015 2.179.03 2.932-.385a1.88 1.88 0 0 0 .838-.998c.164-.438.224-.96.224-1.617v-6c0-.658-.06-1.179-.225-1.617a1.88 1.88 0 0 0-.837-.998c-.753-.416-1.674-.37-2.932-.385h-8.008zm.006 1h8c1.259.015 2.087.06 2.453.262.184.1.29.212.387.472.097.26.16.674.16 1.266v6c0 .592-.063 1.006-.16 1.266-.098.26-.203.371-.387.472-.366.202-1.194.247-2.453.262h-8c-1.259-.015-2.09-.06-2.455-.262-.183-.1-.287-.212-.385-.472-.097-.26-.16-.674-.16-1.266v-6c0-.592.063-1.006.16-1.266.098-.26.202-.371.385-.472.366-.202 1.196-.247 2.455-.262z"
       fill="#808080"
       font-family="sans-serif"
       font-weight="400"
       overflow="visible"
       style="line-height:normal;font-variant-ligatures:normal;font-variant-position:normal;font-variant-caps:normal;font-variant-numeric:normal;font-variant-alternates:normal;font-feature-settings:normal;text-indent:0;text-align:start;text-decoration-line:none;text-decoration-style:solid;text-decoration-color:#000;text-transform:none;text-orientation:mixed;shape-padding:0;isolation:auto;mix-blend-mode:normal;marker:none;fill:#808080;fill-opacity:1"
       white-space="normal"
       id="path2" />
    <path
       d="M598 172h4v1.5c0 1.5.5 1.5 1.5 1.5h.5v1h-8v-1h.5c1 0 1.5 0 1.5-1.5zM602.5 161.5h1.5c2.522.03 3.5 0 3.5 2.5v2.5z"
       fill="#808080"
       overflow="visible"
       style="marker:none;fill:#808080;fill-opacity:1"
       id="path4" />
    <path
       d="M601.5 161a.5.5 0 0 0-.5.5v3.5c0 .658.06 1.179.225 1.617.164.439.461.79.837.998.753.416 1.674.37 2.932.385a.5.5 0 0 0 .006 0h2.5a.5.5 0 0 0 .5-.5v-.5a.5.5 0 0 0-.146-.354l-5.5-5.5A.5.5 0 0 0 602 161zm.5 1.207l4.793 4.793H605c-1.259-.015-2.087-.06-2.453-.262-.184-.1-.29-.212-.387-.472-.097-.26-.16-.674-.16-1.266z"
       fill="#808080"
       font-family="sans-serif"
       font-weight="400"
       overflow="visible"
       style="line-height:normal;font-variant-ligatures:normal;font-variant-position:normal;font-variant-caps:normal;font-variant-numeric:normal;font-variant-alternates:normal;font-feature-settings:normal;text-indent:0;text-align:start;text-decoration-line:none;text-decoration-style:solid;text-decoration-color:#000;text-transform:none;text-orientation:mixed;shape-padding:0;isolation:auto;mix-blend-mode:normal;marker:none;fill:#808080;fill-opacity:1"
       white-space="normal"
       id="path6" />
  </g>
</svg>

<svg xmlns="http://www.w3.org/2000/svg" width="16" height="16" version="1.1">
 <g style="fill:#808080" transform="translate(-592,-160)">
  <path style="fill:#808080" d="M 595.99,161 C 594.74,161.01 593.82,160.97 593.06,161.38 A 1.88,1.88 0 0 0 592.23,162.38 C 592.06,162.82 592,163.34 592,164 V 170 C 592,170.66 592.06,171.18 592.23,171.62 592.39,172.06 592.69,172.41 593.06,172.61 593.82,173.03 594.74,172.98 595.99,173 H 604.01 C 605.26,172.98 606.18,173.03 606.94,172.61 A 1.88,1.88 0 0 0 607.78,171.62 C 607.94,171.18 608,170.66 608,170 V 164 C 608,163.34 607.94,162.82 607.77,162.38 A 1.88,1.88 0 0 0 606.94,161.38 C 606.18,160.97 605.26,161.01 604.01,161 H 596 Z M 596,162 H 604 C 605.26,162.01 606.09,162.06 606.45,162.26 606.64,162.36 606.74,162.47 606.84,162.73 606.94,162.99 607,163.41 607,164 V 170 C 607,170.59 606.94,171.01 606.84,171.27 606.74,171.53 606.64,171.64 606.45,171.74 606.09,171.94 605.26,171.99 604,172 H 596 C 594.74,171.99 593.91,171.94 593.54,171.74 593.36,171.64 593.26,171.53 593.16,171.27 593.06,171.01 593,170.59 593,170 V 164 C 593,163.41 593.06,162.99 593.16,162.73 593.26,162.47 593.36,162.36 593.54,162.26 593.91,162.06 594.74,162.01 596,162 Z"/>
  <path style="fill:#808080" d="M 598,172 H 602 V 173.5 C 602,175 602.5,175 603.5,175 H 604 V 176 H 596 V 175 H 596.5 C 597.5,175 598,175 598,173.5 Z M 602.5,161.5 H 604 C 606.52,161.53 607.5,161.5 607.5,164 V 166.5 Z"/>
  <path style="fill:#808080" d="M 601.5,161 A 0.5,0.5 0 0 0 601,161.5 V 165 C 601,165.66 601.06,166.18 601.23,166.62 601.39,167.06 601.69,167.41 602.06,167.61 602.82,168.03 603.74,167.98 604.99,168 A 0.5,0.5 0 0 0 605,168 H 607.5 A 0.5,0.5 0 0 0 608,167.5 V 167 A 0.5,0.5 0 0 0 607.85,166.65 L 602.35,161.15 A 0.5,0.5 0 0 0 602,161 Z M 602,162.21 606.79,167 H 605 C 603.74,166.99 602.91,166.94 602.55,166.74 602.36,166.64 602.26,166.53 602.16,166.27 602.06,166.01 602,165.59 602,165 Z"/>
 </g>
</svg>
